icon/pk/stethoscope.svg

<svg viewBox="0 0 48 48" fill="none" xmlns="http://www.w3.org/2000/svg" height="1em" width="1em">
  <path d="M21.9474 4V10M10.0526 7H4C4 7 4 16 4 21C4 26 8 32 16 32C24 32 28 26 28 21C28 16 28 7 28 7H21.9474H10.0526ZM10.0526 4V10V4Z" stroke="black" stroke-width="4" stroke-linecap="round" stroke-linejoin="round"/>
  <path d="M40 23C42.2091 23 44 21.2091 44 19C44 16.7909 42.2091 15 40 15C37.7909 15 36 16.7909 36 19C36 21.2091 37.7909 23 40 23Z" fill="#2F88FF" stroke="black" stroke-width="4" stroke-linecap="round" stroke-linejoin="round"/>
  <path d="M16 32C16 38.6274 21.3726 44 28 44C34.6274 44 40 38.6274 40 32V23" stroke="black" stroke-width="4" stroke-linecap="round" stroke-linejoin="round"/>
</svg>

<svg width="48" height="48" fill="none" xmlns="http://www.w3.org/2000/svg"><path d="M21.947 4v6M10.053 7H4v14c0 5 4 11 12 11s12-6 12-11V7H10.053Zm0-3v6-6Z" stroke="#000" stroke-width="4" stroke-linecap="round" stroke-linejoin="round"/><path d="M40 23a4 4 0 1 0 0-8 4 4 0 0 0 0 8Z" fill="#2F88FF" stroke="#000" stroke-width="4" stroke-linecap="round" stroke-linejoin="round"/><path d="M16 32c0 6.627 5.373 12 12 12s12-5.373 12-12v-9" stroke="#000" stroke-width="4" stroke-linecap="round" stroke-linejoin="round"/></svg>
